svg/UnitedNationsOCHA-Humanitarian/food_NFI_rice_icon_box.svg

<svg xmlns="http://www.w3.org/2000/svg" viewBox="0 0 32 32" enable-background="new 0 0 32 32"><path fill="#407cca" d="m25.6 0h-19.2c-3.52 0-6.4 2.88-6.4 6.4v19.2c0 3.52 2.88 6.4 6.4 6.4h19.2c3.521 0 6.4-2.88 6.4-6.4v-19.2c0-3.52-2.88-6.4-6.4-6.4m-.496 10.849c.082.455.27 1.239-.229 1.34-.416.084-.779-.374-.87-.712-.229-.868 1.059-1.835 1.099-.628m.519 2.817c.172.817.002 1.305-.728 1.664-.558.278-1.664.592-1.919.099-.697-1.351 2.146-3.835 2.647-1.763m-3.118-4.165c.17-.548.56-.47.903.033.67-.033.191 1.658-.281 1.68.152.252.453.652.446.958-.008.439-.287.494-.524.867-.41.638-.333 2.01-.799 2.386-.096-.736.224-1.5.075-2.223-.13-.641-.624-.644-.817-1.01-.631-1.188.865-1.553 1.69-1.083-.177-.48-.872-1.036-.693-1.612m-2.742 4.512c.458-.464 1.235-.746 1.88-.644.102.686.248 2.367-.369 2.886-.224.19-2.154.484-2.406.167-.374-.47.564-2.069.895-2.409m-1.112.464c.117-.578 1.5-3.945 2.242-2.251.119.745-.625.698-1.071 1.01-.483.329-.637 1.017-1.171 1.245m2.099-6.326c.817-.448.791.174 1.088.811.032.203.173.578.141.88-.605.064-1.502 1.797-1.566.183.063.878-.784 1.033-1.149 1.67-.253.444-.057.983-.733.983.336-.986-.961-1.114-.698-2.01.272-.935 1.578-.928 2.317-1.036-.731-.553.017-1.167.6-1.485m-2.706 6.975c.243.883.313 1.394-.588 1.563-.795.148-1.292.235-1.534-.585-.484-1.64 2.153-2.63 2.122-.978m-2.945-.673c-.508-.914 2.142-3.048 2.584-1.578.111.889-.725.653-1.237.916-.374.192-.977 1.333-1.347.662m4.317-7.427c.139.602-.327.625-.733.458-.461-.192-1.029-.03-1.5.03-.055-1.108 1.631-.973 2.233-.488m-1.733 1.063c.416-.219 1.046-.036 1.367.258.393 1.07-1.203 1.55-1.615.488.039.259.185.658.122.913-.086.347-.317.293-.479.62-.237.491-.128 1.427-.742 1.612-1.084.333-1.126-1.712-.986-2.357.077-.349.251-1.084.587-1.275.659-.372.912.439 1.229.43.464-.019-.088-.369.517-.689m-1.141-1.137c.171 1.176-2.244 1.442-2.559.487-.489-1.481 2.048-1.413 2.559-.487m-2.869 1.389c.378-.111.984.287 1.236.583-.123.599-.12 1.209-.247 1.808-.128.611-.647.09-.837.65.989-.131 1.609.317 1.01 1.291-.644 1.044-.857.164-1.68.278-.025-.3-.048-.599-.072-.898-.183.183-.173.098-.406.206.288-.439 1.091-1.281.969-1.87-.109-.521-.775-.455-.847-.922-.036-.238.61-1.044.878-1.126m.929 8.378c-.306.229-.966-.042-1.278-.097-.422-.077-.308-.583-.629-.945-.31-.35-1.122-.359-.528-1.18.41-.563 1.57-.641 1.967-.072.301.53 1.093 1.826.468 2.294m-1.476-8.724c-.317.5-1.939 2.506-2.367 1.438-.586-1.467 2.771-2.847 2.367-1.438m-.273 3.153c-.211.275-.44.876-.77 1.014-.325.137-.272-.173-.602-.156-.707.042-1.019.372-1.125-.344-.267-1.801 2.841-2.037 2.497-.514m-1.137 4.652c.131.488.453.691-.246.805-.342.054-.884-.254-1.209-.356-.597-.192-.693-.003-.761-.844-.038-.477.039-1.01.247-1.441.258-.543 1.594-2.357 2.055-1.02.058.604-.439 1.01-.445 1.595-.005.428.251.857.359 1.261m-2.933-5.769c.264-.617 1.209-.438 1.294.2-.115 1.522-1.488.252-1.294-.2m-1.8 1.138c1-.513 1.994-.117 2.781.65.134.386.206.778-.025 1.134-.385.586-.452-.102-.82-.163-.43-.069-.724.31-.984.246-.299-.077-.414-.613-.727-.746-.356-.151-.48-.033-.897-.413-.397-.361.462-.601.672-.708m1.734 2.023c.563.137.275 1.219.229 1.646-.067.648-.328.966-.964.667-.586-.278-.464-.859-.564-1.416-.366.837-.586 1.568-1.177.239-.33-.745.266-1.288.841-1.611.242.156.487.297.602.575-.102.173-.136.404-.2.595.378-.103.831-.79 1.233-.695m19.28 1.428c-.075 1.976-.749 4.119-1.781 6.097 0 0-2.469 4.996-10.216 4.996s-10.258-4.953-10.258-4.953c-1.036-1.989-1.664-4.114-1.742-6.14h.006c-.003-.051-.006-.104-.006-.156 0-.951.589-1.84 1.6-2.609l1.078.694c-.666.447-1.053.949-1.053 1.477 0 1.874 4.646 3.391 10.375 3.391s10.375-1.518 10.375-3.391c0-.479-.308-.934-.857-1.347.395-.166.779-.372 1.137-.608.848.72 1.345 1.526 1.345 2.393 0 .052-.003.105-.006.156h.003"/></svg>

<?xml version="1.0" encoding="utf-8"?>
<!-- Generator: Adobe Illustrator 16.0.3, SVG Export Plug-In . SVG Version: 6.00 Build 0)  -->
<!DOCTYPE svg PUBLIC "-//W3C//DTD SVG 1.1//EN" "http://www.w3.org/Graphics/SVG/1.1/DTD/svg11.dtd">
<svg version="1.1" id="Layer_1" xmlns="http://www.w3.org/2000/svg" xmlns:xlink="http://www.w3.org/1999/xlink" x="0px" y="0px"
	 width="32px" height="32px" viewBox="0 0 32 32" enable-background="new 0 0 32 32" xml:space="preserve">
<path fill="#407CCA" d="M25.6,0H6.4C2.88,0,0,2.88,0,6.4v19.2C0,29.12,2.88,32,6.4,32h19.2c3.521,0,6.4-2.88,6.4-6.4V6.4
	C32,2.88,29.12,0,25.6,0z M25.104,10.849c0.082,0.455,0.27,1.239-0.229,1.34c-0.416,0.084-0.779-0.374-0.87-0.712
	C23.776,10.609,25.064,9.642,25.104,10.849z M25.623,13.666c0.172,0.817,0.002,1.305-0.728,1.664
	c-0.558,0.278-1.664,0.592-1.919,0.099C22.279,14.078,25.122,11.594,25.623,13.666z M22.505,9.501c0.17-0.548,0.56-0.47,0.903,0.033
	c0.67-0.033,0.191,1.658-0.281,1.68c0.152,0.252,0.453,0.652,0.446,0.958c-0.008,0.439-0.287,0.494-0.524,0.867
	c-0.41,0.638-0.333,2.006-0.799,2.386c-0.096-0.736,0.224-1.5,0.075-2.223c-0.13-0.641-0.624-0.644-0.817-1.006
	c-0.631-1.188,0.865-1.553,1.69-1.083C23.021,10.633,22.326,10.077,22.505,9.501z M19.763,14.013
	c0.458-0.464,1.235-0.746,1.88-0.644c0.102,0.686,0.248,2.367-0.369,2.886c-0.224,0.19-2.154,0.484-2.406,0.167
	C18.494,15.952,19.432,14.353,19.763,14.013z M18.651,14.477c0.117-0.578,1.5-3.945,2.242-2.251
	c0.119,0.745-0.625,0.698-1.071,1.006C19.339,13.561,19.185,14.249,18.651,14.477z M20.75,8.151
	c0.817-0.448,0.791,0.174,1.088,0.811c0.032,0.203,0.173,0.578,0.141,0.88c-0.605,0.064-1.502,1.797-1.566,0.183
	c0.063,0.878-0.784,1.033-1.149,1.67c-0.253,0.444-0.057,0.983-0.733,0.983c0.336-0.986-0.961-1.114-0.698-2.006
	c0.272-0.935,1.578-0.928,2.317-1.036C19.419,9.083,20.167,8.469,20.75,8.151z M18.044,15.126c0.243,0.883,0.313,1.394-0.588,1.563
	c-0.795,0.148-1.292,0.235-1.534-0.585C15.438,14.464,18.075,13.474,18.044,15.126z M15.099,14.453
	c-0.508-0.914,2.142-3.048,2.584-1.578c0.111,0.889-0.725,0.653-1.237,0.916C16.072,13.983,15.469,15.124,15.099,14.453z
	 M19.416,7.026c0.139,0.602-0.327,0.625-0.733,0.458c-0.461-0.192-1.029-0.03-1.5,0.03C17.128,6.406,18.814,6.541,19.416,7.026z
	 M17.683,8.089c0.416-0.219,1.046-0.036,1.367,0.258c0.393,1.07-1.203,1.55-1.615,0.488c0.039,0.259,0.185,0.658,0.122,0.913
	c-0.086,0.347-0.317,0.293-0.479,0.62c-0.237,0.491-0.128,1.427-0.742,1.612c-1.084,0.333-1.126-1.712-0.986-2.357
	c0.077-0.349,0.251-1.084,0.587-1.275c0.659-0.372,0.912,0.439,1.229,0.43C17.63,8.759,17.078,8.409,17.683,8.089z M16.542,6.952
	c0.171,1.176-2.244,1.442-2.559,0.487C13.494,5.958,16.031,6.026,16.542,6.952z M13.673,8.341c0.378-0.111,0.984,0.287,1.236,0.583
	c-0.123,0.599-0.12,1.209-0.247,1.808c-0.128,0.611-0.647,0.09-0.837,0.65c0.989-0.131,1.609,0.317,1.006,1.291
	c-0.644,1.044-0.857,0.164-1.68,0.278c-0.025-0.3-0.048-0.599-0.072-0.898c-0.183,0.183-0.173,0.098-0.406,0.206
	c0.288-0.439,1.091-1.281,0.969-1.87c-0.109-0.521-0.775-0.455-0.847-0.922C12.759,9.229,13.405,8.423,13.673,8.341z M14.602,16.719
	c-0.306,0.229-0.966-0.042-1.278-0.097c-0.422-0.077-0.308-0.583-0.629-0.945c-0.31-0.35-1.122-0.359-0.528-1.18
	c0.41-0.563,1.57-0.641,1.967-0.072C14.435,14.955,15.227,16.251,14.602,16.719z M13.126,7.995c-0.317,0.5-1.939,2.506-2.367,1.438
	C10.173,7.966,13.53,6.586,13.126,7.995z M12.853,11.148c-0.211,0.275-0.44,0.876-0.77,1.014c-0.325,0.137-0.272-0.173-0.602-0.156
	c-0.707,0.042-1.019,0.372-1.125-0.344C10.089,9.861,13.197,9.625,12.853,11.148z M11.716,15.8c0.131,0.488,0.453,0.691-0.246,0.805
	c-0.342,0.054-0.884-0.254-1.209-0.356c-0.597-0.192-0.693-0.003-0.761-0.844c-0.038-0.477,0.039-1.009,0.247-1.441
	c0.258-0.543,1.594-2.357,2.055-1.02c0.058,0.604-0.439,1.006-0.445,1.595C11.352,14.967,11.608,15.396,11.716,15.8z M8.783,10.031
	c0.264-0.617,1.209-0.438,1.294,0.2C9.962,11.753,8.589,10.483,8.783,10.031z M6.983,11.169c1.003-0.513,1.994-0.117,2.781,0.65
	c0.134,0.386,0.206,0.778-0.025,1.134c-0.385,0.586-0.452-0.102-0.82-0.163c-0.43-0.069-0.724,0.31-0.984,0.246
	c-0.299-0.077-0.414-0.613-0.727-0.746c-0.356-0.151-0.48-0.033-0.897-0.413C5.914,11.516,6.773,11.276,6.983,11.169z M8.717,13.192
	c0.563,0.137,0.275,1.219,0.229,1.646c-0.067,0.648-0.328,0.966-0.964,0.667c-0.586-0.278-0.464-0.859-0.564-1.416
	c-0.366,0.837-0.586,1.568-1.177,0.239c-0.33-0.745,0.266-1.288,0.841-1.611c0.242,0.156,0.487,0.297,0.602,0.575
	c-0.102,0.173-0.136,0.404-0.2,0.595C7.862,13.784,8.315,13.097,8.717,13.192z M27.997,14.62c-0.075,1.976-0.749,4.119-1.781,6.097
	c0,0-2.469,4.996-10.216,4.996S5.742,20.76,5.742,20.76C4.706,18.771,4.078,16.646,4,14.62h0.006C4.003,14.569,4,14.516,4,14.464
	c0-0.951,0.589-1.84,1.6-2.609l1.078,0.694c-0.666,0.447-1.053,0.949-1.053,1.477c0,1.874,4.646,3.391,10.375,3.391
	s10.375-1.518,10.375-3.391c0-0.479-0.308-0.934-0.857-1.347c0.395-0.166,0.779-0.372,1.137-0.608
	C27.503,12.791,28,13.597,28,14.464c0,0.052-0.003,0.105-0.006,0.156H27.997z"/>
</svg>
